svg/sport/american_football_line.svg

<?xml version="1.0" encoding="UTF-8"?>
<svg width="24px" height="24px" viewBox="0 0 24 24" version="1.1" xmlns="http://www.w3.org/2000/svg" xmlns:xlink="http://www.w3.org/1999/xlink">
    <title>american_football_line</title>
    <g id="Icon" stroke="none" stroke-width="1" fill="none" fill-rule="evenodd">
        <g id="Sport" transform="translate(-192.000000, 0.000000)" fill-rule="nonzero">
            <g id="american_football_line" transform="translate(192.000000, 0.000000)">
                <path d="M24,0 L24,24 L0,24 L0,0 L24,0 Z M12.5935,23.2578 L12.5819,23.2595 L12.5109,23.295 L12.4919,23.2987 L12.4767,23.295 L12.4057,23.2595 C12.3958,23.2564 12.387,23.259 12.3821,23.2649 L12.378,23.2758 L12.3609,23.7031 L12.3659,23.7235 L12.3769,23.7357 L12.4805,23.8097 L12.4953,23.8136 L12.5071,23.8097 L12.6107,23.7357 L12.6233,23.7197 L12.6267,23.7031 L12.6096,23.2758 C12.6076,23.2657 12.601,23.2593 12.5935,23.2578 Z M12.8584,23.1453 L12.8445,23.1473 L12.6598,23.2397 L12.6499,23.2499 L12.6472,23.2611 L12.6651,23.6906 L12.6699,23.7034 L12.6784,23.7105 L12.8793,23.8032 C12.8914,23.8069 12.9022,23.803 12.9078,23.7952 L12.9118,23.7812 L12.8777,23.1665 C12.8753,23.1546 12.8674,23.147 12.8584,23.1453 Z M12.143,23.1473 C12.1332,23.1424 12.1222,23.1453 12.1156,23.1526 L12.1099,23.1665 L12.0758,23.7812 C12.0751,23.7927 12.0828,23.8019 12.0926,23.8046 L12.1083,23.8032 L12.3092,23.7105 L12.3186,23.7024 L12.3225,23.6906 L12.3404,23.2611 L12.3372,23.2485 L12.3278,23.2397 L12.143,23.1473 Z" id="MingCute"></path>
                <path d="M12,2 C12.7969,2 13.6254,2.38188 14.3514,2.88572 C15.1042,3.40818 15.8646,4.14293 16.5433,5.02719 C17.8972,6.7913 19,9.24974 19,12 C19,14.7503 17.8972,17.2087 16.5433,18.9728 C15.8646,19.8571 15.1042,20.5918 14.3514,21.1143 C13.6254,21.6181 12.7969,22 12,22 C11.2031,22 10.3746,21.6181 9.64861,21.1143 C8.89576,20.5918 8.13538,19.8571 7.45671,18.9728 C6.10277,17.2087 5,14.7503 5,12 C5,9.24974 6.10277,6.7913 7.45671,5.02719 C8.13538,4.14293 8.89576,3.40818 9.64861,2.88572 C10.3746,2.38188 11.2031,2 12,2 Z M12,19 C11.4979,19 11.0249,19.123 10.609,19.341 L10.7889,19.4712 L10.7889,19.4712 C11.3754,19.8782 11.7969,20 12,20 C12.2031,20 12.6246,19.8782 13.2111,19.4712 L13.391,19.341 L13.391,19.341 C12.9751,19.123 12.5021,19 12,19 Z M14.8502,6.1086 C14.0419,6.67019 13.0592,7.00017 12,7.00017 C11.0290667,7.00017 10.122381,6.72289514 9.35543557,6.24411536 L9.14979,6.1086 L9.04329,6.24488 C7.89723,7.73814 7,9.7797 7,12 C7,14.1034421 7.80527014,16.0464997 8.86449553,17.5148281 L9.04329,17.7551 L9.14987,17.8915 C9.95813,17.33 10.9408,17 12,17 C12.9709333,17 13.8775854,17.2772917 14.6444713,17.7560049 L14.8501,17.8915 L14.9567,17.7551 C16.1028,16.2619 17,14.2203 17,12 C17,9.89655789 16.1947568,7.95353618 15.1355002,6.48516052 L14.9567,6.24488 L14.8502,6.1086 Z M12,8 C12.5523,8 13,8.44772 13,9 C13.5523,9 14,9.44772 14,10 C14,10.51285 13.613973,10.9355092 13.1166239,10.9932725 L13,11 L13,13 C13.5523,13 14,13.4477 14,14 C14,14.5523 13.5523,15 13,15 C13,15.5523 12.5523,16 12,16 C11.4477,16 11,15.5523 11,15 C10.4477,15 10,14.5523 10,14 C10,13.48715 10.386027,13.0644908 10.8833761,13.0067275 L11,13 L11,11 C10.4477,11 10,10.5523 10,10 C10,9.44772 10.4477,9 11,9 C11,8.44772 11.4477,8 12,8 Z M12,4 C11.7969,4 11.3754,4.1218 10.7889,4.52881 L10.6089,4.65909 L10.6089,4.65909 C11.0247,4.87718 11.4978,5.00017 12,5.00017 C12.5022,5.00017 12.9752,4.87717 13.3911,4.65908 L13.2111,4.52881 L13.2111,4.52881 C12.6246,4.1218 12.2031,4 12,4 Z" id="形状" fill="#09244B"></path>
            </g>
        </g>
    </g>
</svg>

<svg xmlns="http://www.w3.org/2000/svg" width="24" height="24"><g fill="none" fill-rule="nonzero"><path d="M24 0v24H0V0h24ZM12.594 23.258l-.012.002-.071.035-.02.004-.014-.004-.071-.036c-.01-.003-.019 0-.024.006l-.004.01-.017.428.005.02.01.013.104.074.015.004.012-.004.104-.074.012-.016.004-.017-.017-.427c-.002-.01-.009-.017-.016-.018Zm.264-.113-.014.002-.184.093-.01.01-.003.011.018.43.005.012.008.008.201.092c.012.004.023 0 .029-.008l.004-.014-.034-.614c-.003-.012-.01-.02-.02-.022Zm-.715.002a.023.023 0 0 0-.027.006l-.006.014-.034.614c0 .012.007.02.017.024l.015-.002.201-.093.01-.008.003-.011.018-.43-.003-.012-.01-.01-.184-.092Z"/><path fill="#09244B" d="M12 2c.797 0 1.625.382 2.351.886.753.522 1.514 1.257 2.192 2.141C17.897 6.791 19 9.25 19 12s-1.103 5.209-2.457 6.973c-.678.884-1.439 1.619-2.192 2.141-.726.504-1.554.886-2.351.886-.797 0-1.625-.382-2.351-.886-.753-.522-1.514-1.257-2.192-2.141C6.103 17.209 5 14.75 5 12s1.103-5.209 2.457-6.973c.678-.884 1.439-1.619 2.192-2.141C10.375 2.382 11.203 2 12 2Zm0 17c-.502 0-.975.123-1.391.341l.18.13c.586.407 1.008.529 1.211.529.203 0 .625-.122 1.211-.529l.18-.13A2.987 2.987 0 0 0 12 19Zm2.85-12.891A4.98 4.98 0 0 1 12 7c-.97 0-1.878-.277-2.645-.756L9.15 6.11l-.107.136C7.897 7.738 7 9.78 7 12c0 2.103.805 4.046 1.864 5.515l.18.24.106.137A4.98 4.98 0 0 1 12 17c.97 0 1.878.277 2.644.756l.206.136.107-.137C16.103 16.262 17 14.22 17 12c0-2.103-.805-4.046-1.864-5.515l-.18-.24-.106-.136ZM12 8a1 1 0 0 1 1 1 1 1 0 0 1 .117 1.993L13 11v2a1 1 0 1 1 0 2 1 1 0 1 1-2 0 1 1 0 0 1-.117-1.993L11 13v-2a1 1 0 1 1 0-2 1 1 0 0 1 1-1Zm0-4c-.203 0-.625.122-1.211.529l-.18.13c.416.218.889.341 1.391.341s.975-.123 1.391-.34l-.18-.131C12.625 4.122 12.203 4 12 4Z"/></g></svg>
